Images/svg/Polygon6.svg

<svg width="184" height="161" viewBox="0 0 184 161" fill="none" xmlns="http://www.w3.org/2000/svg">
<path opacity="0.3" d="M156.497 89.9263L161.883 80.5L156.497 71.0737L132.497 29.0715L127.026 19.4978L116 19.4978L68 19.4978L56.9736 19.4978L51.5032 29.0715L27.5032 71.0737L22.117 80.5L27.5032 89.9263L51.5032 131.928L56.9736 141.502H68H116H127.026L132.497 131.928L156.497 89.9263Z" fill="#00849C" stroke="white" stroke-width="38"/>
</svg>

<svg width="184" height="161" fill="none" xmlns="http://www.w3.org/2000/svg"><path opacity=".3" d="M156.497 89.926l5.386-9.426-5.386-9.426-24-42.002-5.471-9.574H56.974l-5.47 9.573-24 42.003-5.387 9.426 5.386 9.426 24 42.002 5.47 9.574h70.053l5.471-9.574 24-42.002z" fill="#00849C" stroke="#fff" stroke-width="38"/></svg>
